X: 35382
T: Ross Battery, The
R: jig
M: 6/8
K: Dmajor
d2 A def|gBd c2 A|ged def|gBd c2 e|d2 A def|gBd c2 A|a2 a gec|edd d3:|
afA def|gBd c2 A|afd def|gBd c2 g|afA def|gBd c2 A|a2 a gec|edd d3|
afA def|gBd c2 A|afd def|gBd c2 g|afd fad|Beg c2 A|a2 a gec|edd d3|
def dfA|Bde BdA|faa faf|fed e2 A|def dfA|Bde BdA|a2 a gec|edd d3:|
afd afd|gBd c2A|gBd a2 f|fed e2 g|afd afd|gBd c2A|a2 a gec|edd d3|
afd afd|gBd c2A|gBd a2 f|fed e2 g|fef a2 a|Beg c2 A|a2 a gec|edd d3|

